!!!!SEGMENT: pl-kc--40102-iii-1-saf--001-010_zielenski-mikolaj--offertoria-totius-anni-in-festo-cahedrae-s-petri-tu-es-petrus.krn
!!!cenid: 16xx:1488
!!!COM: Zieleński, Mikołaj
!!!COM-rismID: pe30013481
!!!CDT: <1611->1611
!!!CNT: Polish
!!!GTL: Offertoria totius anni
!!!OTL: In festo Cahedrae S. Petri/Tu es Petrus
!!!OMV: 010
!!!PDT: 1611
!!!AGN: Sacred
!!!YEC: Copyright 2022 Narodowy Instytut Fryderyka Chopina (https://polishscores.org)
!!!YEM: License CC-BY-4.0 (https://creativecommons.org/licenses/by/4.0)
!!!SMS-siglum: PL-Kc
!!!SMS-shelfmark: 40102 III/1 Saf.
!!!SMS-shelfwork: 001-010 G
!!!SMS-variant:
!!!SMS-altvar:
!!!NIFC-rismSourceID: 990069886
!!!NIFC-rismChildID: 990069886
!!!NIFC-islandoraID: none
!!!URL-pdf-islandora:
!!!URL-scan: https://cyfrowe.mnk.pl/dlibra/publication/24235/edition/23926/content?ref=desc @EN{Scan on The National Museum in Krakow Website} @PL{Skany w portalu Biblioteka Cyfrowa Muzeum Narodowego w Krakowie}
!!!IIIF:
!!!ONB-nifc: UWAGA: str. 11. Uwaga: W xml metrum 2/1 do źródłowego C| i odpowiednio 3/1 do 3/2
!!!AIN: 4 organ
!!!key: C
**kern	**kern	**kern	**kern
*group1	*group1	*group1	*group1
*part4	*part3	*part2	*part1
*staff4	*staff3	*staff2	*staff1
*I""Organo	*I""Organo	*I""Organo	*I""Organo
*I''org	*I''org	*I''org	*I''org
*Iorgan	*Iorgan	*Iorgan	*Iorgan
*ICklav	*ICklav	*ICklav	*ICklav
*clefF5	*clefC3	*clefF3	*clefG2
*k[]	*k[]	*k[]	*k[]
*C:	*C:	*C:	*C:
*M2/1	*M2/1	*M2/1	*M2/1
*met(C|)	*met(C|)	*met(C|)	*met(C|)
=1	=1	=1	=1
!	!	!LO:TX:a:t=Tu es Petrus.	!LO:TX:a:t=In feſto Cathedrae S. Petri. A 8.
00r	00r	00r	0dd
=2-	=2-	=2-	=2-
.	.	.	1ee
.	.	.	1cc#X
=3	=3	=3	=3
00r	00r	00r	1dd
.	.	.	2r
.	.	.	2dd\
=4-	=4-	=4-	=4-
.	.	.	1gg
.	.	.	2ee\
.	.	.	2ee\
=5	=5	=5	=5
00r	00r	1r	2.ff\
.	.	.	4ee\
.	.	1G	4dd\
.	.	.	4cc\
.	.	.	2dd\
=6-	=6-	=6-	=6-
.	.	1G	2b/
.	.	.	4gg\
.	.	.	4ff\
.	.	1A	4ee\
.	.	.	4dd\
.	.	.	2ee\
=7	=7	=7	=7
00r	00r	1F#X	2a/
.	.	.	4dd\
.	.	.	4cc\
.	.	1G	4b/
.	.	.	4a/
.	.	.	2b/
=8-	=8-	=8-	=8-
.	.	2r	1a
.	.	2D/	.
.	.	1G	2g/
.	.	.	2dd\
=9	=9	=9	=9
00r	00r	2E/	1gg
.	.	2E/	.
.	.	2.F/	2cc\
.	.	.	2cc\
.	.	4E/	.
=10-	=10-	=10-	=10-
.	.	1D	1ff
.	.	2C/	2ee\
.	.	[y2c\	[y2ee\
*custos:GG	*custos:d	*custos:c	*custos:ee
!!LO:LB:g=original
=11	=11	=11	=11
!	!	!LO:N:xstem:cue	!LO:N:xstem:cue
00r	00r	4c\]	4ee\]
.	.	4c\	4ee\
.	.	2c\	2cc\
.	.	2B\	2dd\
.	.	4c\	4ee\
.	.	4c\	4ee\
=12-	=12-	=12-	=12-
.	.	2.F/	2.ff\
.	.	4F/	4ff\
.	.	2G\	2dd\
.	.	2E/	4ee\
.	.	.	4dd\
=13	=13	=13	=13
00r	0r	2.F/	4cc\
.	.	.	4a/
.	.	.	2cc\
.	.	4E/	.
.	.	2D/	2dd\
.	.	2AA/	2cc\
=14-	=14-	=14-	=14-
*	*	*	*lig
.	1r	2.BB/	1b
.	.	4C/	.
.	[<1d	1D	1a
*	*	*	*Xlig
=15	=15	=15	=15
00r	1d]	1GG	0cc
.	1e	1r	.
=16-	=16-	=16-	=16-
.	1c#X	0r	0r
.	1d	.	.
=17	=17	=17	=17
0GG	2r	00r	00r
.	2B/	.	.
.	1g	.	.
=18-	=18-	=18-	=18-
1AA	2e\	.	.
.	2e\	.	.
1DD	2.f\	.	.
.	4e\	.	.
=19	=19	=19	=19
1GG	4d\	00r	00r
.	4c/	.	.
.	2d\	.	.
2r	1e	.	.
2CC/	.	.	.
=20-	=20-	=20-	=20-
1FF	2r	.	.
.	2c/	.	.
2DD/	1f	.	.
2DD/	.	.	.
=21	=21	=21	=21
1GG	2d\	00r	00r
.	2d\	.	.
1.CC	1e	.	.
=22-	=22-	=22-	=22-
.	2c/	.	.
2.C\	2.e\	.	.
4C\	4e\	.	.
2AA/	2c/	.	.
=23	=23	=23	=23
2BB/	2d\	00r	00r
4C\	4e\	.	.
4C\	4e\	.	.
2.AA/	2e\	.	.
.	2f#X\	.	.
4AA/	.	.	.
=24-	=24-	=24-	=24-
2.GG/	2g\	.	.
.	2d\	.	.
4GG/	.	.	.
4DD/	2.fny\	.	.
4EE/	.	.	.
4FF/	.	.	.
4DD/	4f\	.	.
=25	=25	=25	=25
2.AA/	2e\	0r	0r
.	2.a\	.	.
4GG/	.	.	.
2FF/	.	.	.
.	4g\	.	.
2GG/	2.g\	.	.
=26-	=26-	=26-	=26-
1DD	.	1r	1r
.	8f#X\	.	.
.	8e\	.	.
.	2f#\	.	.
1GG	1g	2r	2r
.	.	[<2G\	2dd\
=27	=27	=27	=27
0r	0r	2G\]	1ee
.	.	2E/	.
.	.	1A	1cc#X
=28-	=28-	=28-	=28-
2r	2r	1D	1dd
2DD/	2d\	.	.
1EE	4B/	2r	2r
.	4A/	.	.
.	4B/	2G\	2dd\
.	8c\	.	.
.	8d\	.	.
=29	=29	=29	=29
1EE	2e\	4G\	1gg
.	.	4F/	.
.	2e\	4E/	.
.	.	4D/	.
1FF	1A	2C/	1ff
.	.	2C/	.
=30-	=30-	=30-	=30-
2r	2r	1C	1ee
2CC/	2c/	.	.
1FF	2.A/	2r	2r
.	.	[<2F/	2cc\
.	4G/	.	.
=31	=31	=31	=31
2DD/	4F/	2F/]	1ff
.	4G/	.	.
2DD/	4A/	2D/	.
.	8G/	.	.
.	8A/	.	.
1GG	2B/	2D/	2dd\
.	2G/	4G\	2dd\
.	.	4F/	.
=32-	=32-	=32-	=32-
2CC/	2c/	4E/	1ee
.	.	4D/	.
2.C\	2.c/	2E/	.
.	.	2C/	2cc\
4C\	4G/	.	.
2BB/	2d\	2D/	[y2gg\
=33	=33	=33	=33
!	!	!	!LO:N:xstem:cue
1AA	4A/	2E/	4gg\]
.	4B/	.	4gg\
.	4c/	4D/	2ff\
.	4d\	4C/	.
2.GG/	4e\	2G\	2ee\
.	8d\	.	.
.	8c\	.	.
.	4B/	4G\	4dd\
4GG/	8A/	4G\	4dd\
.	8G/	.	.
=34-	=34-	=34-	=34-
2DD/	2d\	2.F/	2.ff\
1FF	1A	.	.
.	.	4F/	4ff\
.	.	2F/	2cc\
2CC/	2c/	[y2E/	[y2ee\
=35	=35	=35	=35
!	!	!LO:N:xstem:cue	!LO:N:xstem:cue
2.EE/	2G/	4E/]	4ee\]
.	.	4F/	4dd\
.	2g\	2.G\	2.cc\
4FF/	.	.	.
1GG	2.g\	.	.
.	.	4D/	8b/
.	.	.	8a/
.	.	2G\	2b/
.	4f\	.	.
=36-	=36-	=36-	=36-
1CC	1e	2G\	2cc\
.	.	2C/	2ee\
1r	1r	[y1c	[y1ee
*custos:CC	*custos:c	*custos:B	*custos:dd
!!LO:LB:g=original
=37	=37	=37	=37
!	!	!LO:N:xstem:cue:vis=4	!LO:N:xstem:cue:vis=4
00r	00r	2c\]	2ee\]
.	.	2B\	2dd\
.	.	2.A\	2.cc\
.	.	4A\	4cc\
=38-	=38-	=38-	=38-
.	.	2.G\	2.b/
.	.	4D/	4dd\
.	.	4A\	4cc#X\
.	.	4D/	4dd\
.	.	2A\	2ee\
=39	=39	=39	=39
00r	00r	2.D/	2.dd\
.	.	4D/	4ff\
.	.	4C#X/	4ee\
.	.	4D/	4dd\
.	.	2A\	2cc#X\
=40-	=40-	=40-	=40-
.	.	2D/	2dd\
.	.	2G\	2dd\
.	.	4Cny/	1ee
.	.	4D/	.
.	.	4E/	.
.	.	4C/	.
=41	=41	=41	=41
00r	00r	2F/	2cc\
.	.	2F/	2cc\
.	.	2.D/	2.ff\
.	.	4E/	4ee\
=42-	=42-	=42-	=42-
.	.	2F/	4dd\
.	.	.	4cc\
.	.	2C/	2.cc\
.	.	1G	.
.	.	.	8b/
.	.	.	8a/
.	.	.	2b/
=43	=43	=43	=43
2r	2r	1C	1cc
2CC/	2c/	.	.
1.C	1.e	1r	1r
=44-	=44-	=44-	=44-
.	.	0r	0r
2BB/	2d\	.	.
2.AA/	2.c/	.	.
4AA/	4c/	.	.
=45	=45	=45	=45
2GG/	2B/	2r	2r
2GG/	2B/	2D/	2dd\
1.DD	2.d\	1.D	1.ff
.	4e\	.	.
=46-	=46-	=46-	=46-
.	4f\	.	.
.	4g\	.	.
2AA/	4a\	2C#X/	2ee\
.	4A/	.	.
2.DD/	2.d\	2.D/	2.dd\
4DD/	4d\	4D/	4dd\
=47	=47	=47	=47
1AA	1A	2.E/	2cc#X\
.	.	.	2ee\
.	.	4A\	.
2r	2r	4d\	4ff\
.	.	4D/	4dd\
4r	4r	2A\	2cc#X\
4AA/	4a\	.	.
=48-	=48-	=48-	=48-
4D\	4f\	2D/	2dd\
4DD/	4d\	.	.
2AA/	2c#X/	4r	4r
.	.	4A\	4ee\
2DD/	2d\	4d\	4ff\
.	.	4D/	4dd\
4r	4r	2A\	2cc#X\
4AA/	4a\	.	.
=49	=49	=49	=49
4D\	4f\	2D/	2dd\
4DD/	4d\	.	.
2AA/	2c#X/	2r	2r
2DD/	2d\	2r	2r
2GG/	2d\	2G\	2dd\
=50-	=50-	=50-	=50-
2CC/	2g\	2G\	2ee\
2CC/	2cny/	2G\	2ee\
1FF	1c	4F/	1ff
.	.	8E/	.
.	.	8D/	.
.	.	4C/	.
.	.	4D/	.
=51	=51	=51	=51
1CC	1c	2E/	2ee\
.	.	2.C/	2.gg\
1r	1r	.	.
.	.	4C/	4gg\
.	.	2D/	2ff\
=52-	=52-	=52-	=52-
0r	0r	2.E/	2.ee\
.	.	4F/	8dd\
.	.	.	8cc\
.	.	2G\	4b/
.	.	.	4g/
.	.	2C/	[y2cc\
=53	=53	=53	=53
!	!	!	!LO:N:xstem:cue
1r	1r	1G	4cc\]
.	.	.	8b/
.	.	.	8a/
.	.	.	2b/
2r	2r	2C/	2cc\
2.CC/	2.e\	2.C/	2.ee\
=54-	=54-	=54-	=54-
.	.	.	.
4CC/	4e\	4C/	4ee\
2GG/	2B/	2BB/	2dd\
4CC/	1g	2C/	1cc
4DD/	.	.	.
4EE/	.	2G\	.
4FF/	.	.	.
=55	=55	=55	=55
1GG	1g	2G\	2b/
.	.	2G\	2dd\
0r	0r	2D/	2ff\
.	.	4C#X/	4ee\
.	.	2D/	2dd\
=56-	=56-	=56-	=56-
.	.	.	.
.	.	4D/	4dd\
.	.	2B\	2dd\
2r	2r	1A	1cc#X
2AA/	2e\	.	.
=57	=57	=57	=57
2FF/	2a\	0r	0r
4EE/	4g\	.	.
2FF/	2f\	.	.
4DD/	4f\	.	.
2AA/	2e\	.	.
=58-	=58-	=58-	=58-
1DD	1d	2r	2r
.	.	2D/	2dd\
1r	1r	2A\	2cc\
.	.	4G#X\	4b/
.	.	[<4A\	[<4cc\
*custos:DD	*custos:f	*custos:A	*custos:cc
!!LO:LB:g=original
=59	=59	=59	=59
00r	00r	4A\]	4cc\]
.	.	4F#X/	4dd\
.	.	2E/	2ee\
.	.	2.D/	2a/
.	.	.	2dd\
.	.	4d\	.
=60-	=60-	=60-	=60-
.	.	4c#X\	4ee\
.	.	4d\	4ff#X\
.	.	2G\	2gg\
.	.	2.A\	2.ee\
.	.	4Fny/	4ffny\
=61	=61	=61	=61
0r	0r	2G\	2dd\
.	.	2E/	2.ee\
.	.	2.F/	.
.	.	.	8dd\
.	.	.	8cc\
.	.	.	2.dd\
.	.	8E/	.
.	.	8D/	.
=62-	=62-	=62-	=62-
1r	1r	2A\	.
.	.	.	8cc#X\
.	.	.	8b\
.	.	2AA/	2cc#\
2r	2r	1D	1dd
2DD/	2f\	.	.
=63	=63	=63	=63
2D\	2d\	00r	00r
4C#X\	4e\	.	.
2D\	2f#X\	.	.
4BB/	4g\	.	.
2AA/	2a\	.	.
=64-	=64-	=64-	=64-
2.GG/	2.d\	.	.
4EE/	4g\	.	.
4FF/	4fny\	.	.
4CC/	4e\	.	.
2DD/	2d\	.	.
=65	=65	=65	=65
2.AA/	2c#X/	00r	00r
.	2e\	.	.
4AA/	.	.	.
2D\	2f#X\	.	.
2AA/	2.a\	.	.
=66-	=66-	=66-	=66-
2.BB/	.	.	.
.	8g\	.	.
.	8f#\	.	.
.	2.g\	.	.
8AA/	.	.	.
8GG/	.	.	.
1D	.	.	.
.	8f#X\	.	.
.	8e\	.	.
.	2f#\	.	.
=67	=67	=67	=67
2.GG/	2.g\	2r	2r
.	.	2G\	2dd\
4GG/	4d\	.	.
2EE/	2e\	2G\	2gg\
4FF/	4c/	4C/	4ff\
2CC/	2c/	2E/	2ee\
=68-	=68-	=68-	=68-
.	.	.	.
4DD/	4F/	4AA/	4dd\
2AA/	2A/	2AA/	2cc#X\
2DD/	2ryy	2D/	2.dd\
2GG/	2r	2D/	.
.	.	.	4dd\
=69	=69	=69	=69
2CC/	1c	2C/	2ee\
2CC/	.	2G\	2ee\
1FF	2c/	2F/	1ff
.	2c/	2C/	.
=70-	=70-	=70-	=70-
1CC	0c	2.G\	2ee\
.	.	.	2.gg\
.	.	4F/	.
2.C\	.	4E/	.
.	.	4D/	4ff\
.	.	[<2C/	4ee\
4BB/	.	.	4dd\
=71	=71	=71	=71
4AA/	1c	2C/]	2cc\
4GG/	.	.	.
4FF/	.	2C/	2.ff\
4EE/	.	.	.
1DD	2r	1F	.
.	.	.	4ee\
.	2A/	.	4dd\
.	.	.	4cc\
=72-	=72-	=72-	=72-
2GG/	2B/	0G	4b/
.	.	.	4g/
2CC/	2c/	.	2.cc\
1GG	1G	.	.
.	.	.	8b/
.	.	.	8a/
.	.	.	2b/
=73	=73	=73	=73
1.CC	1.c	2G\	2cc\
.	.	4E/	4cc\
.	.	4F/	4dd\
.	.	4G\	4ee\
.	.	4F/	4dd\
!LO:TX:b:t=Partitura Nicolai Zielenski.	!	!	!
1C	2c/	4ryy	4ee\
.	.	4D/	4ff\
=74-	=74-	=74-	=74-
.	2c/	2C/	2gg\
2BB/	2d\	1G	2dd\
[>1C	2.g\	.	2.ee\
.	.	2G\	.
.	4f\	.	4dd\
=75	=75	=75	=75
1C]	2e\	0G	4cc\
.	.	.	4g/
.	2c/	.	4cc\
.	.	.	4dd\
1CC	1c	.	1ee
=76-	=76-	=76-	=76-
0GGl	0dl	0Gl	0ddl
==	==	==	==
*-	*-	*-	*-
!!!system-decoration: *
!!!RDF**kern: > = above
!!!RDF**kern: < = below
!!!RDF**kern: l = terminal long
!!!ENC: Mateusz Solarz
!!!END: 2021-12-14
!!!ENC: Andrzej Kubiczek
!!!END: 2021-12-18
